packages/kaspersky-hexa-ui-icons/src/iconsSVGs/28x20/FlagNz.svg

<svg width="28" height="20" viewBox="0 0 28 20" fill="none" xmlns="http://www.w3.org/2000/svg">
<g clip-path="url(#clip0_5138_1539)">
<rect width="28" height="20" rx="2" fill="white"/>
<mask id="mask0_5138_1539" style="mask-type:luminance" maskUnits="userSpaceOnUse" x="0" y="0" width="28" height="20">
<rect width="28" height="20" rx="2" fill="white"/>
</mask>
<g mask="url(#mask0_5138_1539)">
<rect width="28" height="20" fill="#0A17A7"/>
<mask id="mask1_5138_1539" style="mask-type:alpha" maskUnits="userSpaceOnUse" x="0" y="0" width="12" height="10">
<rect width="12" height="9.33333" fill="url(#paint0_linear_5138_1539)"/>
</mask>
<g mask="url(#mask1_5138_1539)">
<mask id="path-5-outside-1_5138_1539" maskUnits="userSpaceOnUse" x="-2" y="-2" width="15" height="13" fill="black">
<rect fill="white" x="-2" y="-2" width="15" height="13"/>
<path fill-rule="evenodd" clip-rule="evenodd" d="M4.66667 4L0 0H0.666667L5.33333 3.33333H6.66667L12 0V0.495127C12 0.602778 11.948 0.703801 11.8604 0.766372L7.33333 4V5.33333L11.5475 8.94545C11.7029 9.07867 11.6087 9.33333 11.404 9.33333C11.358 9.33333 11.3132 9.31897 11.2758 9.29226L6.66667 6H5.33333L0 9.33333V8.66667L4.66667 5.33333V4Z"/>
</mask>
<path fill-rule="evenodd" clip-rule="evenodd" d="M4.66667 4L0 0H0.666667L5.33333 3.33333H6.66667L12 0V0.495127C12 0.602778 11.948 0.703801 11.8604 0.766372L7.33333 4V5.33333L11.5475 8.94545C11.7029 9.07867 11.6087 9.33333 11.404 9.33333C11.358 9.33333 11.3132 9.31897 11.2758 9.29226L6.66667 6H5.33333L0 9.33333V8.66667L4.66667 5.33333V4Z" fill="#FF2E3B"/>
<path fill-rule="evenodd" clip-rule="evenodd" d="M4.66667 4L0 0H0.666667L5.33333 3.33333H6.66667L12 0V0.495127C12 0.602778 11.948 0.703801 11.8604 0.766372L7.33333 4V5.33333L11.5475 8.94545C11.7029 9.07867 11.6087 9.33333 11.404 9.33333C11.358 9.33333 11.3132 9.31897 11.2758 9.29226L6.66667 6H5.33333L0 9.33333V8.66667L4.66667 5.33333V4Z" stroke="white" stroke-width="1.33333" mask="url(#path-5-outside-1_5138_1539)"/>
<path fill-rule="evenodd" clip-rule="evenodd" d="M0 3.33333V6H4.66667V9.33333C4.66667 9.70152 4.96514 10 5.33333 10H6.66667C7.03486 10 7.33333 9.70152 7.33333 9.33333V6H12C12.3682 6 12.6667 5.70152 12.6667 5.33333V4C12.6667 3.63181 12.3682 3.33333 12 3.33333H7.33333V0H4.66667V3.33333H0Z" fill="white"/>
<path fill-rule="evenodd" clip-rule="evenodd" d="M0 4H5.33333V3.33333V0H6.66667V3.33333V4H12V5.33333H6.66667V6V9.33333H5.33333V6V5.33333H0V4Z" fill="#FF2E3B"/>
</g>
<path fill-rule="evenodd" clip-rule="evenodd" d="M20 17.3333L19.0572 17.6095L19.3333 16.6667L19.0572 15.7239L20 16L20.9428 15.7239L20.6667 16.6667L20.9428 17.6095L20 17.3333Z" fill="#CA1931"/>
<path fill-rule="evenodd" clip-rule="evenodd" d="M20 4.66667L19.0572 4.94281L19.3333 4L19.0572 3.05719L20 3.33333L20.9428 3.05719L20.6667 4L20.9428 4.94281L20 4.66667Z" fill="#CA1931"/>
<path fill-rule="evenodd" clip-rule="evenodd" d="M24 8.66667L23.0572 8.94281L23.3333 8L23.0572 7.05719L24 7.33333L24.9428 7.05719L24.6667 8L24.9428 8.94281L24 8.66667Z" fill="#CA1931"/>
<path fill-rule="evenodd" clip-rule="evenodd" d="M16 10L15.0572 10.2761L15.3333 9.33333L15.0572 8.39052L16 8.66667L16.9428 8.39052L16.6667 9.33333L16.9428 10.2761L16 10Z" fill="#CA1931"/>
</g>
</g>
<defs>
<linearGradient id="paint0_linear_5138_1539" x1="0" y1="0" x2="0" y2="9.33333" gradientUnits="userSpaceOnUse">
<stop stop-color="#042C90"/>
<stop offset="1" stop-color="#00247E"/>
</linearGradient>
<clipPath id="clip0_5138_1539">
<rect width="28" height="20" fill="white"/>
</clipPath>
</defs>
</svg>

<svg xmlns="http://www.w3.org/2000/svg" width="28" height="20" fill="none" viewBox="0 0 28 20"><g clip-path="url(#a)"><rect width="28" height="20" fill="#fff" rx="2"/><mask id="b" width="28" height="20" x="0" y="0" maskUnits="userSpaceOnUse" style="mask-type:luminance"><rect width="28" height="20" fill="#fff" rx="2"/></mask><g mask="url(#b)"><path fill="#0a17a7" d="M0 0h28v20H0z"/><mask id="d" width="12" height="10" x="0" y="0" maskUnits="userSpaceOnUse" style="mask-type:alpha"><path fill="url(#c)" d="M0 0h12v9.3333H0z"/></mask><g mask="url(#d)"><mask id="e" width="15" height="13" x="-2" y="-2" fill="#000" maskUnits="userSpaceOnUse"><path fill="#fff" d="M-2-2h15v13H-2z"/><path fill-rule="evenodd" d="M4.6667 4 0 0h.6667l4.6666 3.3333h1.3334L12 0v.4951a.333.333 0 0 1-.1396.2713L7.3334 4v1.3333l4.2141 3.6121c.1554.1333.0612.388-.1435.388a.22.22 0 0 1-.1282-.0411L6.6667 6H5.3333L0 9.3333v-.6666l4.6667-3.3334z" clip-rule="evenodd"/></mask><path fill="#ff2e3b" fill-rule="evenodd" d="M4.6667 4 0 0h.6667l4.6666 3.3333h1.3334L12 0v.4951a.333.333 0 0 1-.1396.2713L7.3334 4v1.3333l4.2141 3.6121c.1554.1333.0612.388-.1435.388a.22.22 0 0 1-.1282-.0411L6.6667 6H5.3333L0 9.3333v-.6666l4.6667-3.3334z" clip-rule="evenodd"/><path stroke="#fff" d="M4.6667 4 0 0h.6667l4.6666 3.3333h1.3334L12 0v.4951a.333.333 0 0 1-.1396.2713L7.3334 4v1.3333l4.2141 3.6121c.1554.1333.0612.388-.1435.388a.22.22 0 0 1-.1282-.0411L6.6667 6H5.3333L0 9.3333v-.6666l4.6667-3.3334z" clip-rule="evenodd" mask="url(#e)"/><path fill="#fff" fill-rule="evenodd" d="M0 3.3333V6h4.6667v3.3333c0 .3682.2984.6667.6666.6667h1.3334a.6667.6667 0 0 0 .6666-.6667V6H12a.6667.6667 0 0 0 .6667-.6667V4A.6667.6667 0 0 0 12 3.3333H7.3333V0H4.6667v3.3333z" clip-rule="evenodd"/><path fill="#ff2e3b" fill-rule="evenodd" d="M0 4h5.3333V0h1.3334v4H12v1.3333H6.6667v4H5.3333v-4H0z" clip-rule="evenodd"/></g><path fill="#ca1931" fill-rule="evenodd" d="m20 17.333-.943.276.276-.943-.276-.943L20 16l.943-.276-.276.943.276.943zm0-12.666-.943.276.276-.943-.276-.943.943.276.943-.276-.276.943.276.943zm4 4-.943.276.276-.943-.276-.943.943.276.943-.276-.276.943.276.943zM16 10l-.943.276.276-.943-.276-.943.943.276.943-.276-.276.943.276.943z" clip-rule="evenodd"/></g></g><defs><linearGradient id="c" x1="0" x2="0" y1="0" y2="9" gradientUnits="userSpaceOnUse"><stop stop-color="#042c90"/><stop offset="1" stop-color="#00247e"/></linearGradient><clipPath id="a"><path fill="#fff" d="M0 0h28v20H0z"/></clipPath></defs></svg>
